X:1
T:Title
%%score { 1 | 2 }
L:1/8
M:2/4
K:Bb
V:1 treble nm="Grand Piano"
V:2 bass 
V:1
 z2 z[Q:1/4=100] [DF] | [DF][DB] [DB]c | BA A2 | AB cd |[M:3/8] [DB]2 [DB] |[M:1/8] [DF] | %6
[M:2/4] [DF][DB] [DB]c | BA A2 | AB c>A |[M:3/8] [DB]3 |[M:1/8] [DF] |[M:2/4] [DF][DB] [DB]c | %12
 BA A2 | AB cd |[M:3/8] [DB]2 [DB] |[M:1/8] [DF] |[M:2/4] [DF][DB] [DB]c | BA A2 | AB c>A | %19
[M:3/8] [DB]3 |[M:1/8] d |[M:2/4] dd d/d/d | e2 d2 | dc cB | dc cB | dd d/d/d | [Ge]2 d2 | dB c>A | %28
[M:3/8] [DB]3 |] %29
V:2
 z2 z [B,,B,] | [B,,B,][B,,F,] [B,,F,][E,G,E] | [F,D][F,C] [F,C]2 | [F,C][F,B,D] [F,A,E][F,A,F] | %4
[M:3/8] [B,,B,]2 [B,,B,] |[M:1/8] [B,,B,] |[M:2/4] [B,,B,][B,,F,] [B,,F,][E,G,E] | %7
 [F,D][F,C] [F,C]2 | [F,C][F,B,D] [F,A,E]>[F,C] |[M:3/8] [B,,B,]3 |[M:1/8] [B,,B,] | %11
[M:2/4] [B,,B,][B,,F,] [B,,F,][E,G,E] | [F,D][F,C] [F,C]2 | [F,C][F,B,D] [F,A,E][F,A,F] | %14
[M:3/8] [B,,B,]2 [B,,B,] |[M:1/8] [B,,B,] |[M:2/4] [B,,B,][B,,F,] [B,,F,][E,G,E] | %17
 [F,D][F,C] [F,C]2 | [F,C][F,B,D] [F,A,E]>[F,C] |[M:3/8] [B,,B,]3 |[M:1/8][K:treble] [B,F] | %21
[M:2/4] [B,F][B,F] [B,F]/[B,F]/[B,F] | [B,G]2 [B,F]2 | [F,B,F][F,A,E] [F,A,E][F,B,D] | %24
 [F,B,F][F,A,E] [F,A,E][F,B,D] | [B,F][B,F] [B,F]/[B,F]/[B,F] | [E,B,]2 [B,F]2 | %27
 [F,B,F][F,B,D] [F,A,E]>[F,CE] |[M:3/8] [B,,B,]3 |] %29

